svgs/solid/joystick.svg

<svg xmlns="http://www.w3.org/2000/svg" viewBox="0 0 448 512"><!--! Font Awesome Pro 6.0.0-alpha3 by @fontawesome - https://fontawesome.com License - https://fontawesome.com/license (Commercial License) --><path d="M416 352l-288 .013V336C128 327.1 120.9 320 112 320h-32C71.12 320 64 327.1 64 336v16.01L32 352c-17.62 0-32 14.38-32 32v96c0 17.62 14.38 32 32 32h384c17.62 0 32-14.38 32-32v-96C448 366.4 433.6 352 416 352zM192 218.8V320h64V218.8C302.1 205 336 162.6 336 112C336 50.12 285.9 0 224 0S112 50.12 112 112C112 162.6 145.9 205 192 218.8zM200 48C213.2 48 224 58.75 224 72S213.2 96 200 96S176 85.25 176 72S186.8 48 200 48z"/></svg>

<svg xmlns="http://www.w3.org/2000/svg" viewBox="0 0 448 512"><!-- Font Awesome Pro 5.15.3 by @fontawesome - https://fontawesome.com License - https://fontawesome.com/license (Commercial License) --><path d="M416 352H128v-16a16 16 0 0 0-16-16H80a16 16 0 0 0-16 16v16H32a32 32 0 0 0-32 32v96a32 32 0 0 0 32 32h384a32 32 0 0 0 32-32v-96a32 32 0 0 0-32-32zM192 218.8V320h64V218.8c46.15-13.8 80-56.14 80-106.8a112 112 0 0 0-224 0c0 50.66 33.85 93 80 106.8zM200 48a24 24 0 1 1-24 24 24 24 0 0 1 24-24z"/></svg>
